X: 17
T: Peggy_was_the_Pretiest_Lass_in_aw_the_Town
%R: reel
B: "A Collection of Original Scotch-Tunes", Henry Playford, 1700, ed. p.8 #17
F: http://imslp.org/wiki/A_Collection_of_Original_Scotch_Tunes_(Various)
Z: 2015 John Chambers <jc:trillian.mit.edu>
M: C|
L: 1/8
K: D
% - - - - - - - - - - - - - - - - - - - - - - - - - - - - -
[|\
A3B (AB)(AF) | (AF)(ED) (e3f) |\
A3d (AB)(AF) | Af (ed) d3f |]|\
e3a (ef)(ec) | (ec) (BA) (A3B/d/) |
(AB)(AF) (AF)(ED) | E2e2 e2(fg) |\
(af) (df) (ec) (Ac) | (dB) (Ge) c3A |\
(FA) (GB) (Aa) (eg) | f2d2 d4 |]
% - - - - - - - - - - - - - - - - - - - - - - - - - - - - -

%%sep 1 1 500
%%sep 1 1 500

